X: 1
T: Granny Will Your Dog Bite  v.2
P: piffero secondo a0048
O: Dan Moylan
%R: march
F: http://ancients.sudburymuster.org/mus/ssp/pdf/matthewsF.pdf
Z: 2019 John Chambers <jc:trillian.mit.edu>
M: 2/4
L: 1/16
K: D
z2 |\
F2F2 A2F2 | E4 D4 | F2A2 D2F2 | G2E2 F4 |\
F2F2 A2F2 | E4 D4 | F2A2 D2F2 | G2E2 F2 :|
|: z2 |\
FEFG A2F2 | E2D2 C2D2 | FEFG A2F2 | E2D2 C4 |\
FGFD E2C2 | D2F2 G2A2 | FEFG A2F2 | G2E2 F2 :|


